X: 180
T:Beati omnes / Filii tui
N: Derived from Jos1502-Beati_omnes_qui_timent_Dominum.krn
C: Josquin des Prez
%%abc-version 2.0
%%abcx-abcm2ps-target-version 5.9.1 (29 Sep 2008)
%%abc-creator hum2abc beta
%%abcx-conversion-date 2019/02/12 16:15:46
%%abc-edited-by Jesse Rodin
%%abc-edited-by Victoria Chang
%%abcx-initial-encoding-date 2011/03/21/ [sic]
%%humdrum-veritas 1729279851
%%humdrum-veritas-data 474526301
%%linebreak <none>
%%barnumbers 0
L: 1/4
M: 2/1
Q: 1/2=120
%%staves [1 2 3 4]
V: 1 clef=treble
V: 2 clef=treble-8
V: 3 clef=treble-8
V: 4 clef=bass
K: C
[V:1] A8 | 
[V:2] z4d4 | 
[V:3] d8 | 
[V:4] z4D,4 | 
[V:1] A4A4 | 
[V:2] f4f4 | 
[V:3] d8 | 
[V:4] D,4D,4 | 
[V:1] B8 | 
[V:2] g8 | 
[V:3] d4d4- | 
[V:4] G,8 | 
[V:1] A4A4 | 
[V:2] f4f4 | 
[V:3] d4d4- | 
[V:4] D,4D,4 | 
[V:1] B4d4- | 
[V:2] g8 | 
[V:3] d4d4 | 
[V:4] G,8 | 
[V:1] d2c2c4- | 
[V:2] a8 | 
[V:3] f8 | 
[V:4] F,6G,2 | 
[V:1] c4c4 | 
[V:2] a4g4- | 
[V:3] e8 | 
[V:4] A,2B,2C2C,2 | 
[V:1] B4A4 | 
[V:2] g2G2A4 | 
[V:3] d4d4 | 
[V:4] G,4F,4 | 
[V:1] G3AB2c2- | 
[V:2] B2G2g4 | 
[V:3] e8- | 
[V:4] E,4z2C,2- | 
[V:1] c2B4AB | 
[V:2] z2g3fed | 
[V:3] e8- | 
[V:4] C,D,E,F,G,2A,2- | 
[V:1] cde3dc2 | 
[V:2] c2A3Bcd | 
[V:3] e8- | 
[V:4] A,B,C3B,A,2 | 
[V:1] B2A4^G2 | 
[V:2] e2c2B4 | 
[V:3] e8 | 
[V:4] G,2A,2E,4 | 
[V:1] A8 | 
[V:2] A2e2f4 | 
[V:3] z4d4 | 
[V:4] A,4z2D,2 | 
[V:1] z4z2A2 | 
[V:2] g2g2f3g | 
[V:3] d6d2 | 
[V:4] G,2G,2D,4 | 
[V:1] d2d2A2B2 | 
[V:2] a4z2g2 | 
[V:3] d4d4 | 
[V:4] z4z2G,2 | 
[V:1] c4B4 | 
[V:2] g2g2g4 | 
[V:3] e4d4 | 
[V:4] C2C2G,4 | 
[V:1] A2G2z2G2 | 
[V:2] z2e2e4 | 
[V:3] c8 | 
[V:4] z2C,2C,2C,2 | 
[V:1] G2G2B3c | 
[V:2] e2g4d2 | 
[V:3] B8 | 
[V:4] E,3F,G,4 | 
[V:1] dAd4^c2 | 
[V:2] f4e4 | 
[V:3] A8 | 
[V:4] D,4z4 | 
[V:1] d8 | 
[V:2] d4z2g2 | 
[V:3] B4G4 | 
[V:4] z4z2G,2 | 
[V:1] z2d2d2d2 | 
[V:2] g2g2f2g2 | 
[V:3] d8 | 
[V:4] G,2G,2_B,2B,2 | 
[V:1] c6B2 | 
[V:2] a4A2B2- | 
[V:3] z4z2d2 | 
[V:4] A,4F,2G,2- | 
[V:1] d2d2d4 | 
[V:2] B2AGA2B2 | 
[V:3] d2d2f2f2 | 
[V:4] G,2F,E,D,4 | 
[V:1] G4z2A2 | 
[V:2] c3de2f2- | 
[V:3] e4c2d2- | 
[V:4] C,4z4 | 
[V:1] A2A2c2c2 | 
[V:2] f2ede2f2 | 
[V:3] d2cBA4 | 
[V:4] z8 | 
[V:1] B4G2A2- | 
[V:2] g3fedf2- | 
[V:3] G4z4 | 
[V:4] z2G,4D,2 | 
[V:1] A2GFE4 | 
[V:2] f2ed^c4 | 
[V:3] z8 | 
[V:4] F,2G,2A,4 | 
[V:1] D2d4e2- | 
[V:2] d3ef2e2- | 
[V:3] z2d4A2 | 
[V:4] D,4z4 | 
[V:1] e2dcB4 | 
[V:2] e2a4^g2 | 
[V:3] c2d2e4 | 
[V:4] z8 | 
[V:1] A2FGABc2- | 
[V:2] a4z2a2 | 
[V:3] A2d4e2- | 
[V:4] z2D,4A,,2 | 
[V:1] c2BA^G4 | 
[V:2] g2f2e4- | 
[V:3] e2dcB4 | 
[V:4] C,2D,2E,4 | 
[V:1] A4E3F | 
[V:2] e2c2c4 | 
[V:3] A4z2G2- | 
[V:4] A,,3B,,C,3D, | 
[V:1] G3AB2B2 | 
[V:2] z2g4d2 | 
[V:3] GAB3cdB | 
[V:4] E,3F,G,4 | 
[V:1] A2G2c4 | 
[V:2] f2g2a4 | 
[V:3] c2d2e2f2 | 
[V:4] A,2B,2A,4 | 
[V:1] B8 | 
[V:2] d4z2g2 | 
[V:3] g3fede2 | 
[V:4] G,8 | 
[V:1] z4d4 | 
[V:2] a4f4 | 
[V:3] fedcd4 | 
[V:4] D,8 | 
[V:1] e4c4 | 
[V:2] e8 | 
[V:3] c6BA | 
[V:4] A,4A,4 | 
[V:1] B4z2B2 | 
[V:2] z2g3fed | 
[V:3] e4B4 | 
[V:4] E,4z2G,2 | 
[V:1] A2A2AGAB | 
[V:2] c4f4 | 
[V:3] z4d4 | 
[V:4] A,4F,4 | 
[V:1] c2B2e4 | 
[V:2] g4z2g2- | 
[V:3] e4c4 | 
[V:4] E,8 | 
[V:1] d8- | 
[V:2] g2fed3e | 
[V:3] B4z2B2 | 
[V:4] G,8 | 
[V:1] d4c4 | 
[V:2] fefga4 | 
[V:3] A2A2AGAB | 
[V:4] D,4z2F,2 | 
[V:1] z8 | 
[V:2] z2g3fga | 
[V:3] c2B2e4 | 
[V:4] E,2E,2E,D,E,F, | 
[V:1] z2A2d4 | 
[V:2] _b2a4g2 | 
[V:3] d8 | 
[V:4] G,2F,2_B,4 | 
[V:1] c3de4 | 
[V:2] (3:2:5a4A2c3BG2 | 
[V:3] e8 | 
[V:4] A,4z2E,2 | 
[V:1] A8 | 
[V:2] d8 | 
[V:3] z2f3efg | 
[V:4] D,2D,2D,C,D,E, | 
[V:1] z4c4 | 
[V:2] c8 | 
[V:3] a2g4^f2 | 
[V:4] F,2E,2A,4 | 
[V:1] B6B2 | 
[V:2] z2e2d2d2 | 
[V:3] g8- | 
[V:4] G,8- | 
[V:1] d4c2e2 | 
[V:2] dcdef2e2 | 
[V:3] g4c4 | 
[V:4] G,4A,4 | 
[V:1] d2c4B2 | 
[V:2] a4g4- | 
[V:3] f3ed4 | 
[V:4] F,4G,4 | 
[V:1] c8 | 
[V:2] g4z2g2- | 
[V:3] c8 | 
[V:4] C,8 | 
[V:1] z2d4c2 | 
[V:2] g2f2e4 | 
[V:3] z8 | 
[V:4] z8 | 
[V:1] B4A4- | 
[V:2] d8 | 
[V:3] z4z2d2- | 
[V:4] z2G,4F,2 | 
[V:1] A4z2d2- | 
[V:2] z8 | 
[V:3] d2c2B4 | 
[V:4] E,4D,4 | 
[V:1] d2c2B4 | 
[V:2] z2a4g2 | 
[V:3] A4z4 | 
[V:4] z8 | 
[V:1] A2A2B2c2 | 
[V:2] f4e2e2 | 
[V:3] z4z2a2- | 
[V:4] z2D4C2 | 
[V:1] d4z2c2- | 
[V:2] f2g2a4 | 
[V:3] a2g2f2e2- | 
[V:4] B,4A,4 | 
[V:1] c2BAG2c2 | 
[V:2] A2B2c4 | 
[V:3] e2d2e2f2 | 
[V:4] z4z2A,2 | 
[V:1] B2e4d2 | 
[V:2] d2A2a4- | 
[V:3] g2a2f4 | 
[V:4] B,2C2D4 | 
[V:1] e4z2e2- | 
[V:2] a2c'4c'2 | 
[V:3] e8 | 
[V:4] A,4C4- | 
[V:1] e2e2e2e2 | 
[V:2] c'2c'2g2c'2- | 
[V:3] g6g2 | 
[V:4] C2C2C2C2 | 
[V:1] d4c4 | 
[V:2] c'2b2a4 | 
[V:3] g2g2e2f2- | 
[V:4] G,4A,4- | 
[V:1] A2B2c2d2 | 
[V:2] f2g2a2A2 | 
[V:3] f2e2e2d2 | 
[V:4] A,2G,2F,4 | 
[V:1] G4A4- | 
[V:2] B2c4f2- | 
[V:3] e4z4 | 
[V:4] E,4F,4- | 
[V:1] A2A2A2A2 | 
[V:2] f2f2f2f2 | 
[V:3] c6c2 | 
[V:4] F,2F,2F,2F,2 | 
[V:1] G4F4 | 
[V:2] e2e2d2de | 
[V:3] c2c2F2f2- | 
[V:4] C,4D,4- | 
[V:1] A4d4 | 
[V:2] fga4^g2 | 
[V:3] f2e2e2d2 | 
[V:4] D,2C,2B,,4 | 
[V:1] !fermata!c8 ||  
[V:2] !fermata!a8 ||  
[V:3] !fermata!e8 ||  
[V:4] !fermata!A,,8 ||  
[V:1]  [K:C] [M:2/1]z8 | 
[V:2]  [K:C] [M:2/1]z8 | 
[V:3]  [K:C] [M:2/1]z4e4- | 
[V:4]  [K:C] [M:2/1]A,6A,2 | 
[V:1] z8 | 
[V:2] z8 | 
[V:3] e2e2B4 | 
[V:4] E,4G,4 | 
[V:1] z4e4- | 
[V:2] a6a2 | 
[V:3] d4c4 | 
[V:4] F,3G,A,G,A,B, | 
[V:1] e2e2B4 | 
[V:2] e4g4 | 
[V:3] z8 | 
[V:4] C3B,/A,/G,4 | 
[V:1] d4c4- | 
[V:2] f8 | 
[V:3] z8 | 
[V:4] D,4z2F,2 | 
[V:1] c4z4 | 
[V:2] z8 | 
[V:3] z2c2c2G2 | 
[V:4] F,2C,2E,4 | 
[V:1] z4z2c2 | 
[V:2] z2f2f2c2 | 
[V:3] B4A4 | 
[V:4] D,4F,4 | 
[V:1] c2G2B4 | 
[V:2] e4d4 | 
[V:3] c4G4 | 
[V:4] C,4G,4 | 
[V:1] A4z2c2 | 
[V:2] z2f4c2- | 
[V:3] d4A4 | 
[V:4] D,3E,F,G,A,2 | 
[V:1] A2c3def | 
[V:2] c2f4e2- | 
[V:3] c2A2c3d | 
[V:4] F,3G,A,B,C2- | 
[V:1] g4f2e2- | 
[V:2] efg2a2g2- | 
[V:3] e4c3d | 
[V:4] C2C,2A,,2C,2- | 
[V:1] edc2B2A2 | 
[V:2] gfe2d2c2 | 
[V:3] efg3fe2 | 
[V:4] C,D,E,F,G,2A,2 | 
[V:1] d2e3cf2 | 
[V:2] z2g2a2c'2 | 
[V:3] d2c2A2a2 | 
[V:4] B,2C4F,2 | 
[V:1] e2d4^c2 | 
[V:2] b4a3c' | 
[V:3] g3fe4 | 
[V:4] G,4A,4 | 
[V:1] d4z4 | 
[V:2] b4a4 | 
[V:3] d8 | 
[V:4] D,8 | 
[V:1] e6d2 | 
[V:2] z4a4- | 
[V:3] z8 | 
[V:4] z8 | 
[V:1] c2B2A4- | 
[V:2] a2g2f2e2 | 
[V:3] z4a4- | 
[V:4] z8 | 
[V:1] A4d4- | 
[V:2] d4a4 | 
[V:3] a2g2f2e2 | 
[V:4] D6C2 | 
[V:1] d2c2B4 | 
[V:2] g4g4 | 
[V:3] d4e4- | 
[V:4] B,2A,2G,4 | 
[V:1] A4c4- | 
[V:2] c4e4 | 
[V:3] e2d2c2B2 | 
[V:4] A,6G,2 | 
[V:1] c4d4 | 
[V:2] f2c2f4 | 
[V:3] A2c4B2 | 
[V:4] F,2E,2D,4 | 
[V:1] G4z2G2- | 
[V:2] e8- | 
[V:3] c8 | 
[V:4] C,8 | 
[V:1] G2G2G4 | 
[V:2] e8 | 
[V:3] z4c4 | 
[V:4] z4C,4 | 
[V:1] A4G2A2 | 
[V:2] z4c4 | 
[V:3] ABcde2A2 | 
[V:4] F,4E,2F,2 | 
[V:1] G2c3de2 | 
[V:2] c4c4 | 
[V:3] e2A3Bc2 | 
[V:4] E,2F,4E,2 | 
[V:1] A8- | 
[V:2] d4c2d2 | 
[V:3] F2f2e2f2 | 
[V:4] D,E,F,G,A,2D,2 | 
[V:1] A8 | 
[V:2] c2f3ga2 | 
[V:3] e2d2A4 | 
[V:4] A,2D,3E,F,2 | 
[V:1] B3ABcd2 | 
[V:2] d8- | 
[V:3] z4G4 | 
[V:4] G,8 | 
[V:1] G2B3AGF | 
[V:2] d8 | 
[V:3] G4G4 | 
[V:4] z8 | 
[V:1] E8 | 
[V:2] c8 | 
[V:3] A4G2A2 | 
[V:4] z4C,4 | 
[V:1] G6G2 | 
[V:2] e8 | 
[V:3] G2c3de2 | 
[V:4] C,4C,4 | 
[V:1] FGABc2F2 | 
[V:2] d4z2d2 | 
[V:3] A8- | 
[V:4] D,4C,2D,2 | 
[V:1] c2A3Bc2 | 
[V:2] e2f4e2 | 
[V:3] A8 | 
[V:4] C,2F,3G,A,2 | 
[V:1] A8 | 
[V:2] f4e2a2- | 
[V:3] z2d4c2 | 
[V:4] D,4A,4 | 
[V:1] z8 | 
[V:2] a2g2a4 | 
[V:3] d4f4 | 
[V:4] F,2G,2D,E,F,G, | 
[V:1] z8 | 
[V:2] c'4c'2b2- | 
[V:3] f2e3dd2- | 
[V:4] A,B,C3B,G,2- | 
[V:1] z4z2d2- | 
[V:2] baa4^g2 | 
[V:3] d2c2d4 | 
[V:4] G,2A,2B,2B,2 | 
[V:1] d2c2d4 | 
[V:2] a4b4 | 
[V:3] z4g4 | 
[V:4] A,4z2G,2 | 
[V:1] f4f2e2- | 
[V:2] c'2c2d2e2 | 
[V:3] a4f2g2 | 
[V:4] F,3E,D,2C,2 | 
[V:1] edd4c2 | 
[V:2] f4g4 | 
[V:3] d4e4 | 
[V:4] D,4z4 | 
[V:1] d4z2d2- | 
[V:2] z2g4fe | 
[V:3] d8 | 
[V:4] G,6G,2 | 
[V:1] d2cBA2c2 | 
[V:2] d3efga2 | 
[V:3] z8 | 
[V:4] G,4F,4 | 
[V:1] d8- | 
[V:2] f2g4f2 | 
[V:3] d6d2 | 
[V:4] _B,4G,2B,2- | 
[V:1] d4g4 | 
[V:2] g4z4 | 
[V:3] d4c4 | 
[V:4] B,A,G,F,E,2E,2 | 
[V:1] f8 | 
[V:2] a6a2 | 
[V:3] f4d2f2- | 
[V:4] D,8 | 
[V:1] z8 | 
[V:2] a4g4 | 
[V:3] fedcB2B2 | 
[V:4] F,4G,4 | 
[V:1] e6e2 | 
[V:2] c'4a2c'2- | 
[V:3] A8 | 
[V:4] A,4z4 | 
[V:1] e4d4 | 
[V:2] c'bagf2f2 | 
[V:3] c4d4 | 
[V:4] z8 | 
[V:1] g4e2g2- | 
[V:2] e2g2a2gf | 
[V:3] c4z4 | 
[V:4] C8 | 
[V:1] gfedc2c2 | 
[V:2] edg4^f2 | 
[V:3] z8 | 
[V:4] C4A,4 | 
[V:1] B2B2d4 | 
[V:2] g2g2b2b2 | 
[V:3] g8 | 
[V:4] G,4z2G,2 | 
[V:1] e4z2c2 | 
[V:2] b4c'2a2- | 
[V:3] g4e4 | 
[V:4] E,2E,2A,2A,2 | 
[V:1] d2d2A2A2 | 
[V:2] a2f2f2f2 | 
[V:3] d4z2d2 | 
[V:4] D,4z2D,2 | 
[V:1] G2G2G2G2 | 
[V:2] e4z4 | 
[V:3] B2B2e2e2 | 
[V:4] E,2E,2C,2C,2 | 
[V:1] F4z2A2 | 
[V:2] z2a2f2d2 | 
[V:3] A4z2A2 | 
[V:4] D,4z2F,2 | 
[V:1] G2d2B2B2 | 
[V:2] e2f2g2g2 | 
[V:3] B2B2G2G2 | 
[V:4] E,2D,2E,2E,2 | 
[V:1] c6BA | 
[V:2] e8- | 
[V:3] A8 | 
[V:4] A,,8 | 
[V:1] G8- | 
[V:2] e8 | 
[V:3] z4B4- | 
[V:4] E,6E,2 | 
[V:1] G4z4 | 
[V:2] z8 | 
[V:3] B2B2B2B2 | 
[V:4] E,2E,2D,4 | 
[V:1] z4B4- | 
[V:2] e6e2 | 
[V:3] A4G4 | 
[V:4] C,4z4 | 
[V:1] B2B2B2B2 | 
[V:2] e2e2d4 | 
[V:3] z8 | 
[V:4] z8 | 
[V:1] A4G2c2- | 
[V:2] c4z4 | 
[V:3] z2A2e2c2 | 
[V:4] F,4E,2A,2- | 
[V:1] c2A2d3c | 
[V:2] z2f4d2 | 
[V:3] f4d2g2- | 
[V:4] A,2F,2_B,4 | 
[V:1] BAc3BA2- | 
[V:2] g3fedf2- | 
[V:3] gfedg2f2 | 
[V:4] G,2C4D2 | 
[V:1] A2G2A4- | 
[V:2] fed4^c2 | 
[V:3] d4e4 | 
[V:4] B,4A,4 | 
[V:1] A4z4 | 
[V:2] d2d2d2d2 | 
[V:3] fedcB4 | 
[V:4] D,4z2D,2 | 
[V:1] z2A2A2A2 | 
[V:2] d4f4- | 
[V:3] A4z2A2 | 
[V:4] D,2D,2D,4 | 
[V:1] A4c4- | 
[V:2] f2f2f4 | 
[V:3] A2A2A4 | 
[V:4] F,6F,2 | 
[V:1] c2c2c4 | 
[V:2] a6a2 | 
[V:3] c6c2 | 
[V:4] F,4A,4- | 
[V:1] e6e2 | 
[V:2] c'4g4 | 
[V:3] c4e4 | 
[V:4] A,2A,2C4 | 
[V:1] g4d2c2 | 
[V:2] g3ab2c'2 | 
[V:3] e2g3fed | 
[V:4] G,4G,2A,2- | 
[V:1] e2f2g4 | 
[V:2] a4g3a | 
[V:3] c2d2d2^c2 | 
[V:4] A,2F,2E,4 | 
[V:1] f6d2 | 
[V:2] _b4a4 | 
[V:3] d4f4- | 
[V:4] D,4D4- | 
[V:1] d4z2d2- | 
[V:2] z2a4a2 | 
[V:3] f4f4 | 
[V:4] D4D4 | 
[V:1] d2d2e4 | 
[V:2] a2b2c'2c'2 | 
[V:3] f4g4 | 
[V:4] D4C4 | 
[V:1] d2f4ed | 
[V:2] a8- | 
[V:3] f4d2f2- | 
[V:4] D4D4 | 
[V:1] c2d4^c2 | 
[V:2] a4z2A2 | 
[V:3] f2ede2e2 | 
[V:4] A,8 | 
[V:1] d8- | 
[V:2] B2G3AB2- | 
[V:3] d2g4g2 | 
[V:4] z8 | 
[V:1] d8- | 
[V:2] B2AGd4 | 
[V:3] g4f4 | 
[V:4] z8 | 
[V:1] d8- | 
[V:2] GABcd2GA | 
[V:3] g4g4 | 
[V:4] z2G,4G,2 | 
[V:1] d8- | 
[V:2] Bcdefedc | 
[V:3] d8- | 
[V:4] G,4F,4 | 
[V:1] d8- | 
[V:2] B2G2g4 | 
[V:3] d8- | 
[V:4] G,4G,4 | 
[V:1] d8 |]  
[V:2] f8 |]  
[V:3] d8 |]  
[V:4] D,8 |]  



